build/images/basket.svg

<?xml version="1.0" encoding="UTF-8"?>
<svg width="29px" height="24px" viewBox="0 0 29 24" version="1.1" xmlns="http://www.w3.org/2000/svg" xmlns:xlink="http://www.w3.org/1999/xlink">
    <!-- Generator: sketchtool 63.1 (101010) - https://sketch.com -->
    <title>8AC93558-D6C3-4B77-8119-4D8F69F63345</title>
    <desc>Created with sketchtool.</desc>
    <g id="Page-1" stroke="none" stroke-width="1" fill="none" fill-rule="evenodd">
        <g id="Kupa-shop-main-1" transform="translate(-1533.000000, -38.000000)" fill="#333333" fill-rule="nonzero">
            <g id="header" transform="translate(0.000000, 20.000000)">
                <g id="basket" transform="translate(1533.595833, 18.000000)">
                    <path d="M25.8376445,7.26568714 L22.5867304,7.26568714 L19.9084666,1.59464683 C19.2627472,0.227433593 17.6109225,-0.366124556 16.2262464,0.271342423 C14.8382639,0.91038729 14.2387225,2.53653748 14.8859848,3.90712413 L16.4721245,7.26568714 L11.5571524,7.26568714 L13.1432921,3.90712413 C13.4560675,3.2447918 13.4889101,2.50187834 13.2358132,1.81517035 C12.3934245,-0.469557872 9.15716833,-0.599815293 8.12081032,1.59464683 L5.44254647,7.26568714 L2.1915773,7.26568714 C0.772295289,7.26568714 -0.273430555,8.57810955 0.0635359592,9.94129645 L2.96828099,21.6958045 C3.29775323,23.0292836 4.49876471,23.9606187 5.88889623,23.9606187 L22.1403255,23.9606187 C23.5304571,23.9606187 24.7314134,23.0292836 25.0609408,21.6958045 L27.9656858,9.94129645 C28.3022115,8.57990508 27.2588,7.26568714 25.8376445,7.26568714 Z M16.4841373,3.17133837 C16.1732906,2.5131412 16.662567,1.75618997 17.3957378,1.75618997 C17.7754107,1.75618997 18.139599,1.96898728 18.3103691,2.330487 L20.6410863,7.26568714 L18.4177686,7.26568714 L16.4841373,3.17133837 Z M9.71890777,2.330487 C9.95370978,1.83334328 10.5542982,1.61749901 11.0577917,1.8493398 C11.5612853,2.0811806 11.7798864,2.67419465 11.5451395,3.17133837 L9.6115083,7.26568714 L7.38819057,7.26568714 L9.71890777,2.330487 Z M26.2525844,9.52854256 L23.3478394,21.283105 C23.211565,21.834441 22.7150697,22.2194459 22.1403255,22.2194459 L5.88889623,22.2194459 C5.31415203,22.2194459 4.81765681,21.8343866 4.68138237,21.2830506 L1.77663735,9.52854256 C1.7110074,9.26313082 1.91379346,9.00680555 2.1915773,9.00680555 L25.8375894,9.00680555 C26.1154834,9.00680555 26.3181593,9.26313082 26.2525844,9.52854256 L26.2525844,9.52854256 Z" id="Shape"></path>
                    <path d="M14.0146109,11.6621199 C13.5276488,11.6621199 13.1329324,12.0519128 13.1329324,12.5326792 L13.1329324,18.6936267 C13.1329324,19.174393 13.5276488,19.5641859 14.0146109,19.5641859 C14.501573,19.5641859 14.8962894,19.174393 14.8962894,18.6936267 L14.8962894,12.5326792 C14.8962894,12.0518584 14.501573,11.6621199 14.0146109,11.6621199 L14.0146109,11.6621199 Z" id="Path"></path>
                    <path d="M20.0844165,11.6830678 C19.609302,11.5782742 19.1378244,11.873557 19.0316373,12.342734 L17.6367116,18.5036815 C17.5138277,19.0464752 17.9318535,19.5643491 18.4979462,19.5643491 C18.9016448,19.5643491 19.2658331,19.2887627 19.3575828,18.8835174 L20.7525084,12.7225699 C20.8586956,12.2533929 20.5596413,11.7879702 20.0844165,11.6830678 L20.0844165,11.6830678 Z" id="Path"></path>
                    <path d="M8.99758452,12.342734 C8.89128715,11.8735026 8.42014018,11.578111 7.94480525,11.6830678 C7.46963562,11.7879702 7.17052618,12.2533929 7.27676844,12.7225699 L8.67169409,18.8835174 C8.76344376,19.2887627 9.12752189,19.5643491 9.53133066,19.5643491 C10.0968723,19.5643491 10.5155594,19.0469105 10.3925653,18.5036815 L8.99758452,12.342734 Z" id="Path"></path>
                </g>
            </g>
        </g>
    </g>
</svg>

<svg width="29" height="24" xmlns="http://www.w3.org/2000/svg"><g id="Page-1" stroke="none" stroke-width="1" fill="none" fill-rule="evenodd"><g id="Kupa-shop-main-1" transform="translate(-1533 -38)" fill="#333" fill-rule="nonzero"><g id="header" transform="translate(0 20)"><g id="basket" transform="translate(1533.596 18)"><path d="M25.838 7.266h-3.251l-2.679-5.671C19.263.227 17.611-.366 16.226.27a2.72 2.72 0 00-1.34 3.636l1.586 3.359h-4.915l1.586-3.359a2.687 2.687 0 00.093-2.092C12.393-.47 9.157-.6 8.12 1.595l-2.678 5.67h-3.25c-1.42 0-2.465 1.313-2.128 2.676l2.904 11.755a2.992 2.992 0 002.92 2.265H22.14c1.39 0 2.591-.932 2.92-2.265L27.967 9.94c.336-1.361-.707-2.675-2.128-2.675zM16.484 3.17c-.31-.658.179-1.415.912-1.415.38 0 .744.213.914.574l2.331 4.936h-2.223L16.484 3.17zm-6.765-.84a1.014 1.014 0 011.339-.482.99.99 0 01.487 1.322L9.612 7.266H7.388l2.33-4.936zm16.534 7.198l-2.905 11.754a1.237 1.237 0 01-1.208.936H5.89a1.237 1.237 0 01-1.208-.936L1.777 9.53a.423.423 0 01.415-.522h23.646c.277 0 .48.256.415.522z" id="Shape"/><path d="M14.015 11.662a.876.876 0 00-.882.87v6.162c0 .48.395.87.882.87s.881-.39.881-.87v-6.161a.875.875 0 00-.881-.87zm6.069.021a.882.882 0 00-1.052.66l-1.395 6.16a.874.874 0 00.86 1.061.88.88 0 00.86-.68l1.396-6.161a.87.87 0 00-.669-1.04zm-11.086.66a.882.882 0 00-1.053-.66.87.87 0 00-.668 1.04l1.395 6.16a.88.88 0 00.86.681.874.874 0 00.86-1.06l-1.394-6.161z" id="Path"/></g></g></g></g></svg>
